X:833
T:A A Cameron's Strathspey
S:Battlefield Band
Z:Nigel Gatherer
M:4/4
L:1/8
K:Amix
e>A A2 B<Gd<B | e>A A2 B<g fe/d/ | e>A A2 B<Gd<B | g>BG>B d>g fe/d/ :|
c<ee>f g<e a2 | c<ee>f g>e fe/d/ | c<ee>f g<e a2 | g>BG>B d>g fe/d/ :|
<end>
<start>
